X:111000
T:111000
M:6/8
K:Cmaj
A,B,CDCA,|CEDCA,G,|A,B,CDCA,|CDB,CA,G,|A,B,CDCA,|CDCCA,G,|DEGAGE|DECA,G,A,:|GECGCC|ECCGCC|ABGAcA|GECDCA,|GECACC|GCCGCA,|GAGCEG|DEECA,G,:|

